X:6470
T:Tune from Micho Russell, 5
M:4/4
O:Ireland
R:Reel
Z:Andy Hornby
%%TUNEURL: http://www.leeds.ac.uk/music/Info/RRTuneBk/gettune/00000b53.html
%%ID:00000b53
K:G
BEEE G2GA| BEEE BEdE| BEEE d3B| ABAF DEFD|\
BEEE G2GA| BEEE BEdE|
BEEE d3B| ABAF DEFD :: \
B2BA G2GA| B2BA Bdgd|
B2BA G2BG| Aded Aded|\
B2BA G2GA| B2BA Bdg2| gbag gfge| dedB A2GA:|
